X:1
T:Loyal Be
T:Loyal Be
T:Harold Fiske Sayles
T:Sylvia Lee, 1919
T:Public Domain Courtesy of the Cyber Hymnal™
T:Public Domain Courtesy of the Cyber Hymnal™
C:Harold Fiske Sayles
Z:Public Domain
Z:Courtesy of the Cyber Hymnal™
%%score ( 1 2 ) ( 3 4 )
L:1/8
Q:1/4=95
M:4/4
K:Bb
V:1 treble 
V:2 treble 
V:3 bass 
V:4 bass 
V:1
 [DF][DF] | [Fd][Fd][Fc][Fc] [FB][FB]DD | (z2 BB B2) [DF][DF] | [DB]3 [DB] [Fd][Fd][FB][FB] | %4
w: 1.~O the|world in sin is dy- ing, loy- al|* * * be; Go|* you forth to- day in|
w: 2.~Count- less|la- borers He is need- ing, loy- al|* * * be; For|* the grain is un- to|
w: 3.~Think how|Je- sus died to save you, loy- al|* * * be; How|* He bids you oth- ers’|
w: 4.~What- so-|ev- er may op- pose you, loy- al|* * * be; Bold-|* ly do your du- ty,|
 [Fc]6 [DF][DF] | [Fd][Fd][Fc][Fc] [FB][FB]DD | (z2 BB B2) [DF][DF] | [DB]3 [DB] [Fd][Fd][Ec][Ec] | %8
w: Je- sus’ name;|All the e- vil hosts de- fy- ing,|* * * loy- al|* be, And His peace and|
w: har- vest white;|Let Him not in vain be plead- ing,|* * * loy- al|* be, Glad- ly toil for|
w: bur- dens bear;|Let not world- ly cares en- slave you,|* * * loy- al|* be; Seek the lost ones,|
w: nev- er fear;|Look- ing un- to Him who chose you,|* * * loy- al|* be; For to bless and|
 [DB]6 ||"^Refrain" z2 | z2 ([Fc][Fc] [Fc]2) z2 | z2 [Fc][Bd] [Ae]2 FB | d4- [Fd][Fc][=EB][EG] | %13
w: lib-||er- * *|ty pro- claim! * *||
w: Him||un- * *|til the night. * *||
w: and||your * *|bless- ings share. * *||
w: keep,||He’s * *|ev- er near. * *||
 c6 z2 | z2 ([DB][DB] [GB]2) z2 | z2 ([FB][Fc] [Bd]2) FB | d4- ([Bd][Gc][FB])[FA] | B4 x2 |] %18
w: |||||
w: |||||
w: |||||
w: |||||
V:2
 x2 | x8 | F6 x2 | x8 | x8 | x8 | F6 x2 | x8 | x6 || x2 | x8 | x8 | F2 F2 x4 | (FFFF F2) x2 | x8 | %15
 x8 | B2 B2 x4 | (FGF=E F2) |] %18
V:3
 [B,,B,][B,,B,] | [B,,B,][B,,B,][C,A,][C,A,] [D,B,][D,B,] z2 | %2
w: ||
 z2 ([B,,D][B,,D] [B,,D]2) [B,,B,][B,,B,] | [B,,F,]3 [B,,F,] [B,,B,][B,,B,][D,B,][D,B,] | %4
w: ||
 [F,A,]6 [B,,B,][B,,B,] | [B,,B,][B,,B,][C,A,][C,A,] [D,B,][D,B,] z2 | %6
w: ||
 z2 ([B,,D][B,,D] [B,,D]2) [B,D][A,C] | [G,B,]3 [G,B,] [D,B,][D,B,][F,A,]F, | [B,,F,]6 || D,D, | %10
w: |* * * * * Loy-||al be|
 (z2 A,A, A,2) A,G, | z2 A,B, C2 z2 | [B,,B,]2 [B,,B,]2 B,[A,C][G,C][G,B,] | %13
w: * * * to the||* Lord, Strive to ban- ish|
 ([F,A,][F,A,][F,A,][F,A,] [F,A,]2) D,F, | (z2 B,B, D2) F,A, | z2 DE F2 z2 | %16
w: sin * * * * and woe;|* * * Loy- al||
 [B,F]2 [B,F]2 ([B,F][E,E][F,D][F,C]) | (DE)D^C D2 |] %18
w: * be, send * * *|the * Word, Till the|
V:4
 x2 | x8 | x8 | x8 | x8 | x8 | x8 | x7 F, | x6 || x2 | F,6 x2 | F,6 x2 | x4 B, x3 | x8 | G,6 x2 | %15
 B,6 x2 | x8 | B,,6 |] %18

